Catalina-light/apps/scalable/chrome.svg

<svg width="128" height="128" version="1.1" viewBox="1 1 128 128" xmlns="http://www.w3.org/2000/svg">
<defs>
<linearGradient id="linearGradient4618" x1="29.337" x2="81.837" y1="75.021" y2="44.354" gradientUnits="userSpaceOnUse"/>
<linearGradient id="linearGradient4620" x1="110.87" x2="52.538" y1="164.5" y2="130.33" gradientUnits="userSpaceOnUse"/>
<linearGradient id="linearGradient4622" x1="121.86" x2="136.55" y1="49.804" y2="114.13" gradientUnits="userSpaceOnUse"/>
</defs>
<clipPath id="b">
<use width="100%" height="100%" overflow="visible"/>
</clipPath>
<g transform="matrix(.69864 0 0 .69864 -1.6888 -2.4498)" clip-path="url(#b)">
<path d="m21.97 8v108h39.39l34.64-60h88v-48z" fill="#db4437"/>
<path d="m21.97 8v108h39.39l34.64-60h88v-48z" fill="url(#linearGradient4618)"/>
</g>
<path transform="matrix(.69864 0 0 .69864 -1.6888 -2.4498)" d="m62.31 115.65-39.83-68.31-0.58 1 39.54 67.8z" clip-path="url(#b)" fill="#3e2723" fill-opacity=".15"/>
<g transform="matrix(.69864 0 0 .69864 -1.6888 -2.4498)" clip-path="url(#b)">
<path d="m8 184h83.77l38.88-38.88v-29.12h-69.29l-53.36-91.52z" fill="#0f9d58"/>
<path d="m8 184h83.77l38.88-38.88v-29.12h-69.29l-53.36-91.52z" fill="url(#linearGradient4620)"/>
</g>
<path transform="matrix(.69864 0 0 .69864 -1.6888 -2.4498)" d="m129.84 117.33-0.83-0.48-38.39 67.15h1.15l38.1-66.64z" clip-path="url(#b)" fill="#263238" fill-opacity=".15"/>
<g transform="matrix(.69864 0 0 .69864 -1.6888 -2.4498)" clip-path="url(#b)">
<clipPath id="f">
<use width="100%" height="100%" overflow="visible"/>
</clipPath>
<g clip-path="url(#f)">
<path d="m96 56 34.65 60-38.88 68h92.23v-128z" fill="#ffcd40"/>
<path d="m96 56 34.65 60-38.88 68h92.23v-128z" fill="url(#linearGradient4622)"/>
</g>
<path d="m96 56 34.65 60-38.88 68h92.23v-128z" fill="#ffcd40"/>
<path d="m96 56 34.65 60-38.88 68h92.23v-128z" fill="url(#linearGradient4622)"/>
<clipPath id="j">
<use width="100%" height="100%" overflow="visible"/>
</clipPath>
<g clip-path="url(#j)">
<path d="m21.97 8v108h39.39l34.64-60h88v-48z" fill="#db4437"/>
<path d="m21.97 8v108h39.39l34.64-60h88v-48z" fill="url(#linearGradient4618)"/>
</g>
</g>
<radialGradient id="l" cx="668.18" cy="55.948" r="84.078" gradientTransform="translate(-576)" gradientUnits="userSpaceOnUse">
<stop stop-color="#3E2723" stop-opacity=".2" offset="0"/>
<stop stop-color="#3E2723" stop-opacity="0" offset="1"/>
</radialGradient>
<path transform="matrix(.69864 0 0 .69864 -1.6888 -2.4498)" d="m96 56v20.95l78.4-20.95z" clip-path="url(#b)" fill="url(#l)"/>
<g transform="matrix(.69864 0 0 .69864 -1.6888 -2.4498)" clip-path="url(#b)">
<clipPath id="n">
<use width="100%" height="100%" overflow="visible"/>
</clipPath>
<g clip-path="url(#n)">
<path d="m8 184h83.77l38.88-38.88v-29.12h-69.29l-53.36-91.52z" fill="#0f9d58"/>
<path d="m8 184h83.77l38.88-38.88v-29.12h-69.29l-53.36-91.52z" fill="url(#linearGradient4620)"/>
</g>
</g>
<radialGradient id="p" cx="597.88" cy="48.52" r="78.044" gradientTransform="translate(-576)" gradientUnits="userSpaceOnUse">
<stop stop-color="#3E2723" stop-opacity=".2" offset="0"/>
<stop stop-color="#3E2723" stop-opacity="0" offset="1"/>
</radialGradient>
<path transform="matrix(.69864 0 0 .69864 -1.6888 -2.4498)" d="m21.97 48.45 57.25 57.24-17.86 10.31z" clip-path="url(#b)" fill="url(#p)"/>
<radialGradient id="q" cx="671.84" cy="96.138" r="87.87" gradientTransform="translate(-576)" gradientUnits="userSpaceOnUse">
<stop stop-color="#263238" stop-opacity=".2" offset="0"/>
<stop stop-color="#263238" stop-opacity="0" offset="1"/>
</radialGradient>
<path transform="matrix(.69864 0 0 .69864 -1.6888 -2.4498)" d="m91.83 183.89 20.96-78.2 17.86 10.31z" clip-path="url(#b)" fill="url(#q)"/>
<g transform="matrix(.69864 0 0 .69864 -1.6888 -2.4498)" clip-path="url(#b)">
<circle cx="96" cy="96" r="40" fill="#f1f1f1"/>
<circle cx="96" cy="96" r="32" fill="#4285f4"/>
<path d="m96 55c-22.09 0-40 17.91-40 40v1c0-22.09 17.91-40 40-40h88v-1z" fill="#3e2723" fill-opacity=".2"/>
<path d="m130.6 116c-6.92 11.94-19.81 20-34.6 20-14.8 0-27.69-8.06-34.61-20h-0.04l-53.35-91.52v1l53.36 91.52h0.04c6.92 11.94 19.81 20 34.61 20 14.79 0 27.68-8.05 34.6-20h0.05v-1z" fill="#fff" fill-opacity=".1"/>
<path d="m97 56c-0.17 0-0.33 0.02-0.5 0.03 21.86 0.27 39.5 18.05 39.5 39.97s-17.64 39.7-39.5 39.97c0.17 0 0.33 0.03 0.5 0.03 22.09 0 40-17.91 40-40s-17.91-40-40-40z" fill="#3e2723" opacity=".1"/>
<path d="m131 117.33c3.4-5.88 5.37-12.68 5.37-19.96 0-4.22-0.66-8.28-1.87-12.09 0.95 3.42 1.5 7.01 1.5 10.73 0 7.28-1.97 14.08-5.37 19.96l0.02 0.04-38.88 68h1.16l38.09-66.64z" fill="#fff" fill-opacity=".2"/>
<path d="m96 9c48.43 0 87.72 39.13 87.99 87.5 0-0.17 0.01-0.33 0.01-0.5 0-48.6-39.4-88-88-88s-88 39.4-88 88c0 0.17 0.01 0.33 0.01 0.5 0.27-48.37 39.56-87.5 87.99-87.5z" fill="#fff" fill-opacity=".2"/>
<path d="m96 183c48.43 0 87.72-39.13 87.99-87.5 0 0.17 0.01 0.33 0.01 0.5 0 48.6-39.4 88-88 88s-88-39.4-88-88c0-0.17 0.01-0.33 0.01-0.5 0.27 48.37 39.56 87.5 87.99 87.5z" fill="#3e2723" fill-opacity=".15"/>
</g>
<radialGradient id="r" cx="34.286" cy="32.014" r="176.75" gradientTransform="matrix(.69864 0 0 .69864 -1.6888 -2.4498)" gradientUnits="userSpaceOnUse">
<stop stop-color="#fff" stop-opacity=".1" offset="0"/>
<stop stop-color="#fff" stop-opacity="0" offset="1"/>
</radialGradient>
<circle cx="65.381" cy="64.619" r="61.48" fill="url(#r)" stroke-width=".69864"/>
</svg>

<?xml version="1.0" encoding="UTF-8" standalone="no"?>
<svg
   xmlns:dc="http://purl.org/dc/elements/1.1/"
   xmlns:cc="http://creativecommons.org/ns#"
   xmlns:rdf="http://www.w3.org/1999/02/22-rdf-syntax-ns#"
   xmlns:svg="http://www.w3.org/2000/svg"
   xmlns="http://www.w3.org/2000/svg"
   xmlns:xlink="http://www.w3.org/1999/xlink"
   xmlns:sodipodi="http://sodipodi.sourceforge.net/DTD/sodipodi-0.dtd"
   xmlns:inkscape="http://www.inkscape.org/namespaces/inkscape"
   viewBox="1 1 128 128"
   version="1.1"
   id="svg137"
   sodipodi:docname="chrome-browser.svg"
   width="128"
   height="128"
   inkscape:version="0.92.1 r15371">
  <metadata
     id="metadata141">
    <rdf:RDF>
      <cc:Work
         rdf:about="">
        <dc:format>image/svg+xml</dc:format>
        <dc:type
           rdf:resource="http://purl.org/dc/dcmitype/StillImage" />
        <dc:title></dc:title>
      </cc:Work>
    </rdf:RDF>
  </metadata>
  <sodipodi:namedview
     pagecolor="#ffffff"
     bordercolor="#666666"
     borderopacity="1"
     objecttolerance="10"
     gridtolerance="10"
     guidetolerance="10"
     inkscape:pageopacity="0"
     inkscape:pageshadow="2"
     inkscape:window-width="1920"
     inkscape:window-height="1040"
     id="namedview139"
     showgrid="false"
     inkscape:zoom="3.7926636"
     inkscape:cx="117.74935"
     inkscape:cy="45.285956"
     inkscape:window-x="0"
     inkscape:window-y="0"
     inkscape:window-maximized="1"
     inkscape:current-layer="svg137" />
  <defs
     id="defs3">
    <circle
       id="a"
       cy="96"
       cx="96"
       r="88" />
    <linearGradient
       inkscape:collect="always"
       xlink:href="#c"
       id="linearGradient4618"
       gradientUnits="userSpaceOnUse"
       x1="29.337"
       y1="75.021004"
       x2="81.836998"
       y2="44.354" />
    <linearGradient
       inkscape:collect="always"
       xlink:href="#d"
       id="linearGradient4620"
       gradientUnits="userSpaceOnUse"
       x1="110.87"
       y1="164.5"
       x2="52.537998"
       y2="130.33" />
    <linearGradient
       inkscape:collect="always"
       xlink:href="#g"
       id="linearGradient4622"
       gradientUnits="userSpaceOnUse"
       x1="121.86"
       y1="49.804001"
       x2="136.55"
       y2="114.13" />
    <linearGradient
       inkscape:collect="always"
       xlink:href="#g"
       id="linearGradient4624"
       gradientUnits="userSpaceOnUse"
       x1="121.86"
       y1="49.804001"
       x2="136.55"
       y2="114.13" />
    <linearGradient
       inkscape:collect="always"
       xlink:href="#c"
       id="linearGradient4626"
       gradientUnits="userSpaceOnUse"
       x1="29.337"
       y1="75.021004"
       x2="81.836998"
       y2="44.354" />
    <linearGradient
       inkscape:collect="always"
       xlink:href="#d"
       id="linearGradient4628"
       gradientUnits="userSpaceOnUse"
       x1="110.87"
       y1="164.5"
       x2="52.537998"
       y2="130.33" />
  </defs>
  <clipPath
     id="b">
    <use
       width="100%"
       overflow="visible"
       xlink:href="#a"
       height="100%"
       id="use5"
       style="overflow:visible"
       x="0"
       y="0" />
  </clipPath>
  <g
     transform="matrix(0.69863847,0,0,0.69863847,-1.6887714,-2.4498153)"
     clip-path="url(#b)"
     id="g17">
    <path
       d="M 21.97,8 V 116 H 61.36 L 96,56 h 88 V 8 Z"
       id="path8"
       inkscape:connector-curvature="0"
       style="fill:#db4437" />
    <linearGradient
       id="c"
       y2="44.354"
       gradientUnits="userSpaceOnUse"
       y1="75.021004"
       x2="81.836998"
       x1="29.337">
      <stop
         stop-color="#A52714"
         stop-opacity=".6"
         offset="0"
         id="stop10" />
      <stop
         stop-color="#A52714"
         stop-opacity="0"
         offset=".66"
         id="stop12" />
    </linearGradient>
    <path
       d="M 21.97,8 V 116 H 61.36 L 96,56 h 88 V 8 Z"
       id="path15"
       inkscape:connector-curvature="0"
       style="fill:url(#linearGradient4618)" />
  </g>
  <path
     clip-path="url(#b)"
     d="m 62.31,115.65 -39.83,-68.31 -0.58,1 39.54,67.8 z"
     transform="matrix(0.69863847,0,0,0.69863847,-1.6887714,-2.4498153)"
     id="path19"
     inkscape:connector-curvature="0"
     style="fill:#3e2723;fill-opacity:0.15" />
  <g
     transform="matrix(0.69863847,0,0,0.69863847,-1.6887714,-2.4498153)"
     clip-path="url(#b)"
     id="g30">
    <path
       d="m 8,184 h 83.77 l 38.88,-38.88 V 116 H 61.36 L 8,24.48 Z"
       id="path21"
       inkscape:connector-curvature="0"
       style="fill:#0f9d58" />
    <linearGradient
       id="d"
       y2="130.33"
       gradientUnits="userSpaceOnUse"
       y1="164.5"
       x2="52.537998"
       x1="110.87">
      <stop
         stop-color="#055524"
         stop-opacity=".4"
         offset="0"
         id="stop23" />
      <stop
         stop-color="#055524"
         stop-opacity="0"
         offset=".33"
         id="stop25" />
    </linearGradient>
    <path
       d="m 8,184 h 83.77 l 38.88,-38.88 V 116 H 61.36 L 8,24.48 Z"
       id="path28"
       inkscape:connector-curvature="0"
       style="fill:url(#linearGradient4620)" />
  </g>
  <path
     clip-path="url(#b)"
     d="M 129.84,117.33 129.01,116.85 90.62,184 h 1.15 l 38.1,-66.64 z"
     transform="matrix(0.69863847,0,0,0.69863847,-1.6887714,-2.4498153)"
     id="path32"
     inkscape:connector-curvature="0"
     style="fill:#263238;fill-opacity:0.15" />
  <g
     transform="matrix(0.69863847,0,0,0.69863847,-1.6887714,-2.4498153)"
     clip-path="url(#b)"
     id="g51">
    <defs
       id="defs35">
      <path
         id="e"
         d="m 8,184 h 83.77 l 38.88,-38.88 V 116 H 61.36 L 8,24.48 Z"
         inkscape:connector-curvature="0" />
    </defs>
    <clipPath
       id="f">
      <use
         width="100%"
         overflow="visible"
         xlink:href="#e"
         height="100%"
         id="use37"
         style="overflow:visible"
         x="0"
         y="0" />
    </clipPath>
    <g
       clip-path="url(#f)"
       id="g49">
      <path
         d="m 96,56 34.65,60 -38.88,68 H 184 V 56 Z"
         id="path40"
         inkscape:connector-curvature="0"
         style="fill:#ffcd40" />
      <linearGradient
         id="g"
         y2="114.13"
         gradientUnits="userSpaceOnUse"
         y1="49.804001"
         x2="136.55"
         x1="121.86">
        <stop
           stop-color="#EA6100"
           stop-opacity=".3"
           offset="0"
           id="stop42" />
        <stop
           stop-color="#EA6100"
           stop-opacity="0"
           offset=".66"
           id="stop44" />
      </linearGradient>
      <path
         d="m 96,56 34.65,60 -38.88,68 H 184 V 56 Z"
         id="path47"
         inkscape:connector-curvature="0"
         style="fill:url(#linearGradient4622)" />
    </g>
  </g>
  <g
     transform="matrix(0.69863847,0,0,0.69863847,-1.6887714,-2.4498153)"
     clip-path="url(#b)"
     id="g57">
    <path
       d="m 96,56 34.65,60 -38.88,68 H 184 V 56 Z"
       id="path53"
       inkscape:connector-curvature="0"
       style="fill:#ffcd40" />
    <path
       d="m 96,56 34.65,60 -38.88,68 H 184 V 56 Z"
       id="path55"
       inkscape:connector-curvature="0"
       style="fill:url(#linearGradient4624)" />
  </g>
  <g
     transform="matrix(0.69863847,0,0,0.69863847,-1.6887714,-2.4498153)"
     clip-path="url(#b)"
     id="g71">
    <defs
       id="defs60">
      <path
         id="i"
         d="m 96,56 34.65,60 -38.88,68 H 184 V 56 Z"
         inkscape:connector-curvature="0" />
    </defs>
    <clipPath
       id="j">
      <use
         width="100%"
         overflow="visible"
         xlink:href="#i"
         height="100%"
         id="use62"
         style="overflow:visible"
         x="0"
         y="0" />
    </clipPath>
    <g
       clip-path="url(#j)"
       id="g69">
      <path
         d="M 21.97,8 V 116 H 61.36 L 96,56 h 88 V 8 Z"
         id="path65"
         inkscape:connector-curvature="0"
         style="fill:#db4437" />
      <path
         d="M 21.97,8 V 116 H 61.36 L 96,56 h 88 V 8 Z"
         id="path67"
         inkscape:connector-curvature="0"
         style="fill:url(#linearGradient4626)" />
    </g>
  </g>
  <radialGradient
     id="l"
     gradientUnits="userSpaceOnUse"
     cy="55.948002"
     cx="668.17999"
     gradientTransform="translate(-576)"
     r="84.078003">
    <stop
       stop-color="#3E2723"
       stop-opacity=".2"
       offset="0"
       id="stop73" />
    <stop
       stop-color="#3E2723"
       stop-opacity="0"
       offset="1"
       id="stop75" />
  </radialGradient>
  <path
     clip-path="url(#b)"
     d="M 96,56 V 76.95 L 174.4,56 Z"
     transform="matrix(0.69863847,0,0,0.69863847,-1.6887714,-2.4498153)"
     id="path78"
     inkscape:connector-curvature="0"
     style="fill:url(#l)" />
  <g
     transform="matrix(0.69863847,0,0,0.69863847,-1.6887714,-2.4498153)"
     clip-path="url(#b)"
     id="g92">
    <defs
       id="defs81">
      <path
         id="m"
         d="M 21.97,8 V 48.34 L 61.36,116 96,56 h 88 V 8 Z"
         inkscape:connector-curvature="0" />
    </defs>
    <clipPath
       id="n">
      <use
         width="100%"
         overflow="visible"
         xlink:href="#m"
         height="100%"
         id="use83"
         style="overflow:visible"
         x="0"
         y="0" />
    </clipPath>
    <g
       clip-path="url(#n)"
       id="g90">
      <path
         d="m 8,184 h 83.77 l 38.88,-38.88 V 116 H 61.36 L 8,24.48 Z"
         id="path86"
         inkscape:connector-curvature="0"
         style="fill:#0f9d58" />
      <path
         d="m 8,184 h 83.77 l 38.88,-38.88 V 116 H 61.36 L 8,24.48 Z"
         id="path88"
         inkscape:connector-curvature="0"
         style="fill:url(#linearGradient4628)" />
    </g>
  </g>
  <radialGradient
     id="p"
     gradientUnits="userSpaceOnUse"
     cy="48.52"
     cx="597.88"
     gradientTransform="translate(-576)"
     r="78.043999">
    <stop
       stop-color="#3E2723"
       stop-opacity=".2"
       offset="0"
       id="stop94" />
    <stop
       stop-color="#3E2723"
       stop-opacity="0"
       offset="1"
       id="stop96" />
  </radialGradient>
  <path
     clip-path="url(#b)"
     d="M 21.97,48.45 79.22,105.69 61.36,116 Z"
     transform="matrix(0.69863847,0,0,0.69863847,-1.6887714,-2.4498153)"
     id="path99"
     inkscape:connector-curvature="0"
     style="fill:url(#p)" />
  <radialGradient
     id="q"
     gradientUnits="userSpaceOnUse"
     cy="96.138"
     cx="671.84003"
     gradientTransform="translate(-576)"
     r="87.870003">
    <stop
       stop-color="#263238"
       stop-opacity=".2"
       offset="0"
       id="stop101" />
    <stop
       stop-color="#263238"
       stop-opacity="0"
       offset="1"
       id="stop103" />
  </radialGradient>
  <path
     clip-path="url(#b)"
     d="m 91.83,183.89 20.96,-78.2 17.86,10.31 z"
     transform="matrix(0.69863847,0,0,0.69863847,-1.6887714,-2.4498153)"
     id="path106"
     inkscape:connector-curvature="0"
     style="fill:url(#q)" />
  <g
     transform="matrix(0.69863847,0,0,0.69863847,-1.6887714,-2.4498153)"
     clip-path="url(#b)"
     id="g112">
    <circle
       cy="96"
       cx="96"
       r="40"
       id="circle108"
       style="fill:#f1f1f1" />
    <circle
       cy="96"
       cx="96"
       r="32"
       id="circle110"
       style="fill:#4285f4" />
  </g>
  <g
     transform="matrix(0.69863847,0,0,0.69863847,-1.6887714,-2.4498153)"
     clip-path="url(#b)"
     id="g122">
    <path
       d="M 96,55 C 73.91,55 56,72.91 56,95 v 1 C 56,73.91 73.91,56 96,56 h 88 v -1 z"
       id="path114"
       inkscape:connector-curvature="0"
       style="fill:#3e2723;fill-opacity:0.2" />
    <path
       d="m 130.6,116 c -6.92,11.94 -19.81,20 -34.6,20 -14.8,0 -27.69,-8.06 -34.61,-20 H 61.35 L 8,24.48 v 1 L 61.36,117 h 0.04 c 6.92,11.94 19.81,20 34.61,20 14.79,0 27.68,-8.05 34.6,-20 h 0.05 v -1 z"
       id="path116"
       inkscape:connector-curvature="0"
       style="fill:#ffffff;fill-opacity:0.1" />
    <path
       d="m 97,56 c -0.17,0 -0.33,0.02 -0.5,0.03 21.86,0.27 39.5,18.05 39.5,39.97 0,21.92 -17.64,39.7 -39.5,39.97 0.17,0 0.33,0.03 0.5,0.03 22.09,0 40,-17.91 40,-40 0,-22.09 -17.91,-40 -40,-40 z"
       id="path118"
       inkscape:connector-curvature="0"
       style="opacity:0.1;fill:#3e2723" />
    <path
       d="m 131,117.33 c 3.4,-5.88 5.37,-12.68 5.37,-19.96 0,-4.22 -0.66,-8.28 -1.87,-12.09 0.95,3.42 1.5,7.01 1.5,10.73 0,7.28 -1.97,14.08 -5.37,19.96 l 0.02,0.04 -38.88,68 h 1.16 l 38.09,-66.64 z"
       id="path120"
       inkscape:connector-curvature="0"
       style="fill:#ffffff;fill-opacity:0.2" />
  </g>
  <g
     transform="matrix(0.69863847,0,0,0.69863847,-1.6887714,-2.4498153)"
     clip-path="url(#b)"
     id="g128">
    <path
       d="m 96,9 c 48.43,0 87.72,39.13 87.99,87.5 0,-0.17 0.01,-0.33 0.01,-0.5 C 184,47.4 144.6,8 96,8 47.4,8 8,47.4 8,96 8,96.17 8.01,96.33 8.01,96.5 8.28,48.13 47.57,9 96,9 Z"
       id="path124"
       inkscape:connector-curvature="0"
       style="fill:#ffffff;fill-opacity:0.2" />
    <path
       d="m 96,183 c 48.43,0 87.72,-39.13 87.99,-87.5 0,0.17 0.01,0.33 0.01,0.5 0,48.6 -39.4,88 -88,88 C 47.4,184 8,144.6 8,96 8,95.83 8.01,95.67 8.01,95.5 8.28,143.87 47.57,183 96,183 Z"
       id="path126"
       inkscape:connector-curvature="0"
       style="fill:#3e2723;fill-opacity:0.15" />
  </g>
  <radialGradient
     id="r"
     gradientUnits="userSpaceOnUse"
     cy="32.014"
     cx="34.285999"
     gradientTransform="matrix(0.69863847,0,0,0.69863847,-1.6887715,-2.4498151)"
     r="176.75">
    <stop
       stop-color="#fff"
       stop-opacity=".1"
       offset="0"
       id="stop130" />
    <stop
       stop-color="#fff"
       stop-opacity="0"
       offset="1"
       id="stop132" />
  </radialGradient>
  <circle
     cy="64.619476"
     cx="65.380524"
     r="61.480186"
     id="circle135"
     style="fill:url(#r);stroke-width:0.6986385" />
</svg>
